X: 27505
T: Mom's
R: jig
M: 6/8
K: Adorian
|:EAA AGA|BAA A2G|EAA ABc|B/c/dc BAG|
EAA AGA|BAA Aaf|gag gfe|dBG GAB:|
|:AaA g2A|fed eAe|AaA g2e|dBG GAB|
AaA g2A|fed eaf|gag gfe|dBG GAB:|
|:A,2A ABc|B2A A2E|E2A ABc|B/c/dc BAG|
E2A ABc|B2A AEF|GAG GFE|DB,G, G,A,B,:|
|:AaA g2A|fed eAe|AaA g2e|dBG GAB|
AaA g2A|fed eaf|gag gfe|dBG GAB:|

